X:17
T:Out With the Boys
M:6/8
L:1/8
F:http://blackrosetheband.googlepages.com/ABCTUNES.ABC May 2009
S:Kevin Burke Live - Track 6
K:G
Gz2 g2e|dBG AGE|DEG AGG|BAA ABA|
GFG (3gag e|dBG AGE|DEG AGA|1 BGG G2D:|2 BGG G2z||
efe gfe|efe gfe|efe gfe|fdB B3|
efe gfg|agf gfe|BcB AGA|1 BGE E3:|2 BGE DEF||
T:alt B-Part
efe gfe|Beg bge|Beg bge|fdB B3|
